!!!OTL: Absage (107b), S. 260
!!!id: T0270
**kern
*clefG2
*k[]
*C:
{8g
8g
=1
4a
4g
4a
4b
=2
2dd
4cc}
=3
{8cc
8cc
=4
4b
4dd
4cc
4ee
=5
2dd}
8r
=6
{8g
8g
8g
=7
4ff
4ee
4dd
4cc
=8
2dd
4a}
=9
{8b
8a
=10
4g
8cc
8dd
4ee
4dd
=11
2cc}
4r
==
*-
!!!minrhy: 8
!!!meters: 4/4 ]  ZZ[4
!!!cut: Absage (107b), S. 260
!!!reg: Luxemburg
!!!trd: Singendes Volk, Esch-Alzette 1937 posth.
!!!rhy1: XX  X_X_X_X_  X__X_
!!!rhy2: XX  X_X_X_X_  X__0
!!!key: T0270  08  C 4/4 ]  ZZ[4
!!!mod: HEPTATONIK IONISCH]  AMBITUS[7b
!!!kad: +1+26+1
!!!akz: 66+2+1_7+1+2_+4+2+26_5+3+1_
!!!fot: 'a__b__c__d__
!!!for: 'a__aw_av_b__
!!!fok: '/__/__^a_Sa_
!! PHRAS[AUFTAKTIG]
!!!fkt: Liebeslieder
!!!bem1: Triole zu 3 Achteln,
!!!bem2: mit Verl&auml;ngerung um eine halbe
!!!bem3: Z&auml;hlzeit; Bögen, J. Molitor, 1900,
!!!bem4: mitgeteilt: hhh Heinrich Godefroid (Lehrer);
!!!bem5: (107c)- Rodershausen, ? J. Molitor;
!!!bem6: mitgeteilt, hhh Josef Bour (Lehrer)
!! THILL, Mathias:
!! PR[32] 2K[0] 2G[11] 3K[7] 3G[7] 4A[4] 4Ü[0] 5A[4] 6K[0] 6G[0]
!! 7K[0] 7G[0] 8A[0] MEHR[0] SI[32] ABS[28] SR[11] SP[21]
!! ST[8] 2k[4] 2g[14] 3k[7] 3g[7] 4d[4] 4ü[0] 5d[0] 6k[0] 6g[0]
!! 7k[0] 7g[0] 8d[0] mehr[0] si[36] dm[-4] sr[18] sp[18]
!! 1F[6] 2F[58] 3F[24] 4F[0] LF[0] 2P[0] 3P[12] 4P[0] TRI[0] DF[4] AB[33]
!! TF[0] U3K[0] U3[0] U4[0] U4Ü[0] U5[0] U6K[0] U6[0] U7K[0] U7[0]
!! N1[21] N2K[0] N2[7] N3K[0] N3[21] N4[3] N4Ü[0] N5[31] N6K[0] N6[10]
!!!n7k: 0] N7[3] O1[3] O2K[0] O2[0] O3K[0] O3[0] HÖ[0
!!!RNB: symbol: &auml;      = a umlaut  (UTF-8: Å„)
